material/.icons/material/swap-vertical-variant.svg

<svg xmlns="http://www.w3.org/2000/svg" viewBox="0 0 24 24"><path d="M18 4l-4 4h3v8a2 2 0 01-2 2 2 2 0 01-2-2V8a4 4 0 00-4-4 4 4 0 00-4 4v8H2l4 4 4-4H7V8a2 2 0 012-2 2 2 0 012 2v8a4 4 0 004 4 4 4 0 004-4V8h3l-4-4z"/></svg>

<?xml version="1.0" encoding="UTF-8"?><!DOCTYPE svg PUBLIC "-//W3C//DTD SVG 1.1//EN" "http://www.w3.org/Graphics/SVG/1.1/DTD/svg11.dtd"><svg xmlns="http://www.w3.org/2000/svg" xmlns:xlink="http://www.w3.org/1999/xlink" version="1.1" id="mdi-swap-vertical-variant" width="24" height="24" viewBox="0 0 24 24"><path d="M18,4L14,8H17V16A2,2 0 0,1 15,18A2,2 0 0,1 13,16V8A4,4 0 0,0 9,4A4,4 0 0,0 5,8V16H2L6,20L10,16H7V8A2,2 0 0,1 9,6A2,2 0 0,1 11,8V16A4,4 0 0,0 15,20A4,4 0 0,0 19,16V8H22L18,4Z" /></svg>
